X:1
T:Hallelujah, He Is Risen!
T:Hallelujah, He Is Risen!
T:Philip Paul Bliss
T:Philip Paul Bliss, 1876
T:Public Domain Courtesy of the Cyber Hymnal™
C:Philip Paul Bliss
Z:Public Domain
Z:Courtesy of the Cyber Hymnal™
%%score ( 1 2 ) 3
L:1/8
Q:1/4=100
M:3/4
K:G
V:1 treble 
V:2 treble 
V:3 bass 
V:1
 [Gd]>[Gd] | [Gd]3 [GB] [FA]>[FB] | G2 [B,D]2 [DG]>G | [FA]3 [Ac] [GB]>[FA] | [GB]4 [Gd]>[Gd] | %5
w: 1.~Hal- le-|lu- jah, He is|ris- en! Je- sus|is gone up on|high! Burst the|
w: 2.~Hal- le-|lu- jah, He is|ris- en! Our ex-|alt- ed Head to|be; Sends the|
w: 3.~Hal- le-|lu- jah, He is|ris- en! Death for|aye hath lost his|sting, Christ, Him-|
 [Gd]3 [GB] [FA]>[FB] | G2 [B,D]2 [DG]>G | [FA]3 [Ac] [GB]>[FA] | G4 |: G>G | %10
w: bars of death a-|sun- der, An- gels|shout and men re-|ply:|He is|
w: wit- ness of the|Spir- it That our|ad- vo- cate is|He:|He is|
w: self the Re- sur-|rect- ion, From the|grave His own will|bring:|He is|
 [Ge]3 [Ge] [Ge]>[Ge] |1 [Gd]2 [GB]2 [GB]>[Gd] | [Fc]3 [Ac] [GB]>[FA] | [GB]4 :|2 %14
w: ris- en, He is|ris- en, Liv- ing|now no more to|die.|
w: ris- en, He is|ris- en, Jus- ti-|fied in Him are|we.|
w: ris- en, He is|ris- en, Liv- ing|Lord and com- ing|King.|
 [Fc]3 [Ac] [GB]>[FA] || G4 |] %16
w: now no more to|die.|
w: fied in Him are|we.|
w: Lord and com- ing|King.|
V:2
 x2 | x6 | G2 x3/2 G/ x2 | x6 | x6 | x6 | G2 x3/2 G/ x2 | x6 | G4 |: G>G | x6 |1 x6 | x6 | x4 :|2 %14
 x6 || G4 |] %16
V:3
 [G,B,]>[G,B,] | [G,B,]3 [G,D] [D,C]>[D,C] | [G,B,]2 [G,,G,]2 [G,B,]>[G,B,] | %3
 [D,D]3 [D,D] [D,D]>[D,D] | [G,D]4 [G,B,]>[G,B,] | [G,B,]3 [G,D] [D,C]>[D,C] | %6
 [G,B,]2 [G,,G,]2 [G,B,]>[G,B,] | [D,D]3 [D,D] [D,D]>[D,C] | [G,,B,]4 |: [G,B,]>[G,B,] | %10
 [C,C]3 [D,C] [E,C]>[F,C] |1 [G,B,]2 [G,D]2 [G,D]>[G,B,] | [D,A,]3 [D,D] [D,D]>[D,D] | [G,B,]4 :|2 %14
 [D,A,]3 [D,D] [D,D]>[D,C] || [G,,B,]4 |] %16

